X: 3215
T: Beeswing, The
R: hornpipe
M: 4/4
K: Dmajor
Ac|d>af<d c>ge<c|A>fd<A F>dA<F|G>Be<g F>Avd>vf|(3edc (3dcB A2Bc|
d>af<d' c>ae<c'|G>dB<g F>dA<f|G>Be>g f>ed>c|e2d2 d2:|
|:ag|f<da>f d'>af>d|e<ca>e c'>ae>c|B<Gd>B g>ef>d|(3edc (3dcB A2Bc|
d>af<d' c>ae<c'|G>dB<g F>dA<f|G>Be>g f>ed>c|e2d2 d2:|
|:(3cde|d>a (3fed c>g (3edc|d>a (3fed A>GF>A|G>Be<g F>Ad>f|(3e^de (3d'b^g a2A>B|
(3dfa (3d'af (3cea (3c'ae|(3GBd (3gdB (3FAd (3fdA|G>Be>g f>ed>c|e2d2 d2:|
|:ag|(3fed (3afa (3d'ag (3fed|(3edc (3aea (3c'ae (3edc|
(3BGB (3dBd (3gfe (3fed|(3e^de (3d'b^g a2A>B|
(3dfa (3d'af (3cea (3c'ae|(3GBd (3gdB (3FAd (3fdA|G>Be>g f>ed>c|e2d2 d2:|

